static/img/chainfusion/benefits-1.svg

<svg width="24" height="24" viewBox="0 0 24 24" fill="none" xmlns="http://www.w3.org/2000/svg">
<g id="coins-fill" clip-path="url(#clip0_15880_65713)">
<path id="Vector" d="M14.9049 0.00280762C20.2069 0.00280762 24.505 4.30088 24.505 9.60277C24.505 13.4964 22.187 16.8485 18.8558 18.3548C17.3497 21.6856 13.9979 24.0028 10.1049 24.0028C4.80296 24.0028 0.504883 19.7048 0.504883 14.4028C0.504883 10.5099 2.82211 7.1581 6.1525 5.65159C7.65922 2.32069 11.0114 0.00280762 14.9049 0.00280762ZM11.3049 8.40283H8.9049V9.60277C7.24805 9.60277 5.9049 10.9459 5.9049 12.6028C5.9049 14.1934 7.14275 15.4949 8.70766 15.5964L8.9049 15.6028H11.3049L11.4128 15.6125C11.6927 15.6633 11.9049 15.9083 11.9049 16.2028C11.9049 16.4974 11.6927 16.7424 11.4128 16.7932L11.3049 16.8028H6.5049V19.2028H8.9049V20.4028H11.3049V19.2028C12.9618 19.2028 14.3049 17.8598 14.3049 16.2028C14.3049 14.6123 13.067 13.3108 11.5022 13.2093L11.3049 13.2028H8.9049L8.79706 13.1932C8.51716 13.1424 8.3049 12.8974 8.3049 12.6028C8.3049 12.3083 8.51716 12.0633 8.79706 12.0125L8.9049 12.0028H13.7049V9.60277H11.3049V8.40283ZM14.9049 2.40281C12.7647 2.40281 10.8426 3.33661 9.52382 4.819C9.71665 4.80862 9.9101 4.80282 10.1049 4.80282C15.4069 4.80282 19.705 9.10089 19.705 14.4028C19.705 14.598 19.6991 14.7919 19.6877 14.9842C21.1709 13.6657 22.105 11.7433 22.105 9.60277C22.105 5.62637 18.8814 2.40281 14.9049 2.40281Z" fill="white" fill-opacity="0.6"/>
</g>
<defs>
<clipPath id="clip0_15880_65713">
<rect width="24" height="24" fill="white"/>
</clipPath>
</defs>
</svg>

<svg xmlns="http://www.w3.org/2000/svg" width="24" height="24" fill="none" viewBox="0 0 24 24"><g clip-path="url(#a)"><path fill="#fff" fill-opacity=".6" d="M14.905.003a9.6 9.6 0 0 1 9.6 9.6 9.602 9.602 0 0 1-5.65 8.752 9.6 9.6 0 0 1-8.75 5.648 9.6 9.6 0 0 1-9.6-9.6 9.602 9.602 0 0 1 5.647-8.751 9.603 9.603 0 0 1 8.753-5.65Zm-3.6 8.4h-2.4v1.2a3 3 0 0 0-.197 5.993l.197.007h2.4l.108.01a.6.6 0 0 1 0 1.18l-.108.01h-4.8v2.4h2.4v1.2h2.4v-1.2a3 3 0 0 0 .197-5.994l-.197-.006h-2.4l-.108-.01a.6.6 0 0 1 0-1.18l.108-.01h4.8v-2.4h-2.4v-1.2Zm3.6-6c-2.14 0-4.062.934-5.381 2.416a9.6 9.6 0 0 1 10.164 10.165 7.2 7.2 0 0 0-4.783-12.581Z"/></g><defs><clipPath id="a"><path fill="#fff" d="M0 0h24v24H0z"/></clipPath></defs></svg>
